frontend/public/svg/gender symbols/other-gender.svg

<svg width="126" height="80" viewBox="0 0 126 80" fill="none" xmlns="http://www.w3.org/2000/svg">
<g clip-path="url(#clip0)">
<path d="M96.6098 36.518L111.539 37.4024C111.003 36.5096 110.422 35.6443 109.799 34.8095C108.196 32.9311 106.505 31.1265 104.912 29.2402C102.91 26.8728 102.739 24.9669 104.316 23.6431C105.837 22.3652 107.743 22.8271 109.836 25.0699C111.905 27.2857 113.892 29.5778 115.966 31.7877C118.346 34.3255 120.758 36.8323 123.202 39.3081C125.832 41.9623 126.128 43.6837 123.821 46.6457C120.651 50.715 117.3 54.6465 113.959 58.5787C113.348 59.2349 112.592 59.7391 111.751 60.0503C110.977 60.4129 110.102 60.5009 109.271 60.3006C108.44 60.1002 107.701 59.6232 107.177 58.9475C106.639 58.3558 106.312 57.6029 106.247 56.8061C106.182 56.0094 106.382 55.2135 106.816 54.5422C107.518 53.5413 108.335 52.6253 109.248 51.8131C111.211 49.8559 113.213 47.9407 115.793 45.4243C108.959 44.3847 102.975 44.2791 96.617 44.0139C96.4798 45.2833 96.4418 46.3629 96.2324 47.4084C95.9823 48.9428 95.597 50.4521 95.0818 51.9188C94.7418 52.6279 94.1984 53.2201 93.521 53.6202C92.8437 54.0204 92.0633 54.2107 91.2777 54.167C90.4921 54.1232 89.7373 53.8474 89.1091 53.3744C88.4804 52.9015 88.0065 52.2525 87.7466 51.5099C87.3863 50.112 87.1848 48.678 87.1454 47.235C87.1828 46.0211 87.3055 44.8116 87.5129 43.6149L79.2569 43.0897C78.8631 44.4949 78.5296 45.7591 78.1555 47.01C73.4004 62.9118 62.8058 73.0587 47.1632 78.0082C43.8846 79.0681 40.4279 79.4646 36.9945 79.1732C33.5612 78.8824 30.2202 77.9097 27.1667 76.3128C17.4168 71.5012 9.43885 63.7289 4.37473 54.1077C-0.909449 44.1464 -0.631181 33.9633 4.41671 24.029C10.9098 11.2501 21.0508 3.06048 35.4213 0.610374C36.857 0.343833 38.3207 0.259177 39.7775 0.358799C47.7547 0.973006 55.4113 3.75962 61.9171 8.41659C68.0558 12.8104 73 18.6675 76.302 25.456C77.895 28.6216 78.8663 32.1006 80.3588 36.0734C82.2071 36.145 84.631 36.263 87.0535 36.3228C88.3662 36.3549 88.7088 35.4133 88.8663 34.3316C89.0921 32.7774 89.2509 31.206 89.5942 29.6767C90.1849 27.0461 91.7233 25.6238 93.5322 25.8627C95.2991 26.0957 96.4339 27.5639 96.5842 30.1289C96.7063 32.1163 96.6098 34.1184 96.6098 36.518ZM7.235 39.3583C7.22909 44.3537 8.83633 48.8412 11.4098 53.0293C15.2461 59.2723 20.5081 64.0813 26.637 67.9879C33.1951 72.1668 40.0657 72.6019 47.204 69.6038C54.0956 66.7113 59.9372 62.3842 64.1377 56.2206C72.5596 43.8519 72.4789 34.0493 65.567 23.7232C65.2553 23.2578 65.0058 22.7506 64.6934 22.2859C59.9782 15.2821 53.9701 9.91127 45.5231 8.03743C42.4002 7.34433 39.0252 6.846 35.8998 7.26603C19.704 9.44376 9.77752 24.1617 7.60833 35.345C7.41549 36.6747 7.29092 38.0133 7.235 39.3558V39.3583Z" fill="black"/>
</g>
<defs>
<clipPath id="clip0">
<rect width="125.361" height="79.4169" fill="white" transform="translate(0.356689 0.288086)"/>
</clipPath>
</defs>
</svg>

<svg xmlns="http://www.w3.org/2000/svg" width="126" height="80" fill="none" viewBox="0 0 126 80"><g clip-path="url(#a)"><path fill="#000" d="m96.61 36.518 14.929.884a31 31 0 0 0-1.74-2.593c-1.603-1.878-3.294-3.682-4.887-5.569-2.002-2.367-2.173-4.273-.596-5.597 1.521-1.278 3.427-.816 5.52 1.427 2.069 2.216 4.056 4.508 6.13 6.718a408 408 0 0 0 7.236 7.52c2.63 2.654 2.926 4.376.619 7.338-3.17 4.069-6.521 8-9.862 11.933a5.74 5.74 0 0 1-2.208 1.471 3.77 3.77 0 0 1-4.574-1.102 3.62 3.62 0 0 1-.361-4.406c.702-1 1.519-1.917 2.432-2.729 1.963-1.957 3.965-3.872 6.545-6.389-6.834-1.04-12.818-1.145-19.176-1.41-.137 1.27-.175 2.349-.385 3.394a26.5 26.5 0 0 1-1.15 4.51 3.97 3.97 0 0 1-3.804 2.249 3.97 3.97 0 0 1-3.531-2.657 19.2 19.2 0 0 1-.602-4.275q.056-1.823.368-3.62l-8.256-.525c-.394 1.405-.727 2.67-1.102 3.92-4.755 15.902-15.35 26.049-30.992 30.998a25.93 25.93 0 0 1-19.996-1.695A51.52 51.52 0 0 1 4.375 54.108c-5.284-9.962-5.006-20.145.042-30.079C10.91 11.25 21.05 3.06 35.42.61c1.436-.266 2.9-.35 4.357-.251a43.8 43.8 0 0 1 22.14 8.058 45.35 45.35 0 0 1 14.384 17.039c1.593 3.166 2.564 6.645 4.057 10.617 1.848.072 4.272.19 6.695.25 1.312.032 1.655-.91 1.812-1.991.226-1.555.385-3.126.728-4.655.59-2.63 2.13-4.053 3.938-3.814 1.767.233 2.902 1.7 3.052 4.266.122 1.987.026 3.99.026 6.389m-89.375 2.84c-.006 4.996 1.601 9.483 4.175 13.671 3.836 6.243 9.098 11.052 15.227 14.959 6.558 4.179 13.429 4.614 20.567 1.616 6.892-2.893 12.733-7.22 16.934-13.383 8.422-12.37 8.34-22.172 1.429-32.498-.312-.465-.561-.972-.874-1.437C59.978 15.282 53.97 9.91 45.523 8.037c-3.123-.693-6.498-1.191-9.623-.771C19.704 9.444 9.778 24.162 7.608 35.345a39 39 0 0 0-.373 4.01z"/></g><defs><clipPath id="a"><path fill="#fff" d="M.357.288h125.36v79.417H.358z"/></clipPath></defs></svg>
